X:1
T:Le Papillon
T:Pièces Faciles et Agréables pour la Flûte ou Violon et Guitare 
T:Mauro Giuliani  (1781-1829)
T:Op.74
C:Giuliani
%%score { 1 ( 2 3 ) }
L:1/8
Q:1/4=100
M:2/4
K:G
V:1 treble nm="Flûte"
V:2 treble-8 nm="Classical Guitar"
V:3 treble-8 
V:1
"^Allegretto" B/c/ | dd d(f/g/) | dd de/d/ | Ae/d/ Ad/c/ | B/c/A/B/ G/A/B/c/ | dd df/g/ | %6
 d b2 a/g/ | g/f/e/d/ ^c/d/e/f/ | gb g :| f/g/ | aa d'd' | b2 c'/b/a/g/ | ff g/f/e/f/ | %13
 (g2 d) f/g/ | aa d'd' | b2 b/a/g/f/ | ee{/f} e/d/e/f/ | d>f ag/e/ | d>f ag/e/ | d^c/e/ dc/e/ | %20
 d^c/e/ dB/=c/ | dd df/g/ | dd de/d/ | Ae/d/ Ad/c/ | B/c/A/B/ G/A/B/c/ | dd df/g/ | d b2 a/g/ | %27
 g/f/e/d/ ^c/d/e/f/ | gb g!fine! |]:[K:C] c'/d'/ | e'e' e'e' | a2 d'2 | bb d'/c'/b/c'/ | %33
 d'>g a/b/c'/d'/ | !/!e'4 | ^d'2 e'b/g/ | c'a/^f/ af/^d/ | e3 :: =d/e/ | g/f/d/B/ Gd/e/ | %40
 g/f/d/B/ GA/B/ |{/d} c/B/c/d/{/f} e/d/e/^f/ | g/G/A/B/ c/d/e/=f/ | gg e'e' | e'2 d'/c'/b/c'/ | %45
 d'g !turn!ga/b/ | c'e' c'!D.C.! :| %47
V:2
 z | [DGB][DGB] [DGB] z | [DGB][DGB] [DGB] z | [DAc]2 [DAc]2 | [DGB][DGB] [DGB] z | %5
 z/ D/G/B/ z/ D/G/B/ | z/ D/G/B/ z/ D/G/B/ | z/ D/A/c/ z/ D/A/c/ | z/ G/B/g/ z :| z | %10
 z [Adf] z [Adf] | z [Bdg] z [Bdg] | z [cda] z [cda] | z [Bdg] z [Bdg] | z [Adf] z [Adf] | %15
 z [GBg] z [GBg] | z [A^cg] z [Acg] | z [Adf] z [A^cg] | z [Adf] z [A^cg] | [Adf]2 z2 | z4 | %21
 [DGB][DGB] [DGB] z | [DGB][DGB] [DGB] z | [DAc]2 [DAc]2 | [DGB][DGB] [DGB] z | %25
 z/ D/G/B/ z/ D/G/B/ | z/ D/G/B/ z/ D/G/B/ | z/ D/A/c/ z/ D/A/c/ | z/ G/B/g/ z |]:[K:C] z | %30
 z [Gce] z [Gce] | z [Acf] z [Acf] | z [Gdf] z [Gce] | z [GBg] z2 | z [Gce] z [Gce] | %35
 z [AB^f] z [GBe] | z [Ac^f] z [ABf] | z [GBe] z :: z | z [Gd=f] [Gdf] z | z [Gdf] [Gdf] z | %41
 z [Gce] z [c^f] | [Bg]2 z2 | z [Gce] z [Gce] | z [Gce] z [Gce] | z [Gdf] z [Gdf] | %46
 z [Gce] [Gce] :| %47
V:3
 x | G,G, G, z | G,G, G, z | G,2 G,2 | G,G, G, z | G,2 G,2 | G,2 G,2 | G,2 G,2 | G,2 G, :| z | %10
 D z D z | D z D z | D z D z | D z D z | D z D z | G, z G, z | A, z A, z | D z A, z | D z A, z | %19
 D2 z2 | x4 | G,G, G, z | G,G, G, z | G,2 G,2 | G,G, G, z | G,2 G,2 | G,2 G,2 | G,2 G,2 | %28
 G,2 G, |]:[K:C] z | C z C z | F, z F, z | G, z C z | G, z G, z | C z C z | B, z E, z | A, z B, z | %37
 E, z E, :: z | z B, B, z | z B, B, z | C z A, z | G,2 z2 | C z C z | C z C z | G, z G, z | %46
 C z C :| %47

